!!!OTL: ES FUHR EIN BAUER INS HOLZ
!!!ARE: Europa, Mitteleuropa, Deutschland, Westfalen
!!!SCT: E0149B
!!!YEM: Copyright 1995, estate of Helmut Schaffrath.
**kern
*ICvox
*Ivox
*M6/8
*k[f#]
*G:
{8d
=1
4g
8g
4f#
8f#
=2
4e
8e
4d}
{8d
=3
4g
8g
8a
8g
8a
=4
4.b
4r}
{8g
=5
4b
8a
8.b
16cc
8dd
=6
4b
8g
4a}
{8cc
=7
4cc
8b
4a
8g
=8
8.f#
16g
8a
4a}
{8b
=9
8dd
8b
8dd
8cc
8a
8cc
=10
4.b
4r}
==
!!!AGN: erzaehlendes Volks - Lied, Scherz, Schwank, betrogener Ehemann     Ballade ?
!!!ONB: ESAC (Essen Associative Code) Database: ERK1
!!!AMT: compound duple
!!!AIN: vox
!!!EED: Helmut Schaffrath
!!!EEV: 1.0
*-
!!!title: @{OTL} [@{SCT}]
